X:1
T:Herr, wer wird wohnen
T:Arnold von Bruck
T:Source : DDT 34---Leipzig---Breitkopf & Härtel---J.Wolf---1908. First publication : Neue Deudsche Geistliche Gesenge---Wittemberg---G.Rhau---1544. Editor : André Vierendeels (19/07/17).
T:Notes : Original clefs : C1, C3, C4, F4 Original note values have been jalved Editorial accidentals above the staff 
T:Herr, wer wird wohnen 
T:Ps 15
T:©
T:©
T:©
C:Arnold von Bruck
Z:©
%%score [ 1 [ 2 3 ] 4 ]
L:1/8
Q:1/4=120
M:2/2
K:F
V:1 treble nm="Soprano" snm="S"
V:2 treble-8 nm="Tenor 1" snm="T 1"
V:3 treble-8 nm="Tenor 2" snm="T 2"
V:4 bass nm="Bass" snm="B"
V:1
 G8 | B4 A4 | G4 d4- | d4 c2 A2 | B4 A2 B2- | BA A4 G2 | A4 z2 A2 | B4 c4 | d4 c4 | B4 A2 A2- | %10
w: Herr,|wer wird|woh- *|* nen in|dei- ner Hüt-||te auf|dei- nem|hei- *|li- gen Ber-|
w: Wer|ohn' Wan-|del her|_ _ _|ein- her- *||tritt und|tut ge-|rech- te|Wer- * *|
"^#" AG G4 F2 |1 G8 :|2 G4 B4- || B4 A4 | F4 G4 | A6 GF | ED G2 F2 E2- | ED D4 C2 | D8 | z4 z2 D2 | %20
w: |ge?|* Und|* red't|von Her-|zen die- *|* * wahr- * *||heit|und|
w: ||ke *||||||||
 D4 D4 | C2 D2 E4 | F3 D E F2 E | F4 z2 A2 | B4 c4 | d4 c4 | B3 A G2 A2- |"^#" AG G4 F2 | G8 |] %29
w: mit sei-|nem Zun- gen|all- * * * *|zeit sei-|nem Näch-|sten nicht|nach- * * *|* * re- *|det.|
w: |||||||||
V:2
 z4 d4- | d4 f4 | e4 d4 | z2 d2 e2 f2 | Bcde f2 g2 | e2 f2 d4 | e2 f3 edc |"^b" g2 f2 e4 | %8
w: Herr,|* wer|* wird|woh nen in|dei- * * * * *|||* ner Hütt'|
w: Wer|* ohn'|Wan- del|her ein- her-||||* * tritt|
 z2 d2 e2 f2 | g4 e2 f2 | d2 c2 d4 |1 z8 :|2 z2 B4 c2 || d2 e2 f2 c2 | d6 e2 | f2 F2 A2 B2 | %16
w: auf dei- nem|hei- li- gen|Ber- * ge?-||Und re-||det von|Her- * * *|
w: und tut ge|rech- te Wer-|* * ke||||||
 c2 B3 A A2- | A2 G2 A4 | F2 G2 GABc | d4 B4 | A4 B4 | z2 f2 e2 c2- | c2 B2 c4 | z2 f3 edc | %24
w: * zen die Wahr-||heit und mit _ _ _|sei- ner|Zun- gen|all- * *|* * zeit|sei- * * *|
w: ||||||||
"^b" g2 f2 e4 | z2 d2 e2 f2 | g4 e2 f2 | d2 c2 d4 | d8 |] %29
w: nem Näch- sten|nicht nach- *|re- det, nicht|nach- * re-|det.|
w: |||||
V:3
 z8 | z8 | G8 | B4 A4 | G4 d4 | c2 A2 B4 | A8 | z4 z2 A2 | B4 c4 | d4 c4 | B2 G2 A4 |1 G8 :|2 G8 || %13
w: ||Wer|wird woh-|nen in|dei- ner Hüt-|te-|auf|dei- nem|hei- li-|gen Ber- *|ge?-||
w: ||Wer|ohn' Wan-|del her|ein- her- *|tritt|tut|ge- rech-|te Wer-|* * ke.||ke|
 z8 | B8 | A4 F4 | G4 A4 | F2 ED E4 | D4 z2 G2 | G4 G4 | F4 G4 | A2 B2 G4 | F4 G4 | F8 | z4 A4 | %25
w: |Und|red't von|Her- zen|die- * * Wahr-|heit, und|mit sei-|ner Zun-|* * gen,|all- *|zeit|sei-|
w: ||||||||||||
 B4 c4 | d4 c4 | B2 AG A4 | G8 |] %29
w: nem Näch-|ster nicht|nach- * * re-|det.|
w: ||||
V:4
 G,8 | G,4 F,4 | C,4 B,,2 B,2- | B,A, G,4 F,2 | G,4 z2 G,2 | A,2 F,2 G,4 | z2 D,3 E, F,2 | %7
w: Herr,|wer wird|woh- * *||nen in|dei- ner Hütt'-|auf- * *|
w: Wer|ohn' Wan-|||del her|ein- her- tritt|und _ _|
 _E,2 D,2 C,4 | B,,2 B,3 A, A,2 | G,4 C,2 F,2 |"^b" G,2 E,2 D,4 |1 G,,8 :|2 G,,4 G,4- || G,4 F,4 | %14
w: dem hei- li-|gen Ber- * *|||ge?-|* Und|* re-|
w: tut ge rech-|te ke. * *||||ke. *||
 B,,3 A,, G,,2 G,2 | F,3 E, D,4 | C,2 G,,2 D,2 A,,2 | B,,4 A,,4 | B,,4 G,,4 | z2 G,,2 G,,A,,B,,C, | %20
w: det- * * von|Her- * *||zen die|Wahr- heit|und mit _ _ _|
w: ||||||
 D,4 G,,4 | C,2 B,,2 C,4 | D,4 C,4 | z2 D,3 E, F,2 | _E,2 D,2 C,4 | B,,2 B,3 A, A,2 | G,4 C,2 F,2 | %27
w: sei- ner|Zun- * gen|all- zeit|sei- * *|nem Näch- *|sten nicht- * nach-|re- det, nicht|
w: |||||||
"^b" G,2 E,2 D,4 | G,,8 |] %29
w: nach- * re-|det.|
w: ||

